X:1
T:Title
%%score { ( 1 4 5 ) | ( 2 3 ) }
L:1/8
M:4/4
K:Bb
V:1 treble nm="Grand Piano"
V:4 treble 
V:5 treble 
V:2 bass 
V:3 bass 
V:1
 z4 z2[Q:1/4=92] [B,D][CE] | [DF]<[DF] [DF]2 [DB]3 [FA]/[FA]/ | [FA]<G G2 G2 GG | %3
 [B,DF]2 [A,EF][A,EF] [B,F]2 [DB][DB] | A2 BB c2 D[CE] | [DF]<[DF] [DF]2 [DFB]3 [B,FA]/[B,FA]/ | %6
 [B,FA]<[B,EG] [B,EG]2 [B,GB]2 [B,FA]G | F2 FF F2 AB | %8
[M:35/32] c3 [DB] [DB]2 [Fd]-(3:2:4[Fd]3/2-[Fd]/4[B,FB]3/4-[B,FB]/8 | %9
[M:4/4] (9:8:8[B,FA]/[B,EG]3/2 [B,EG]2- [B,EG]/ [B,GB]/-[B,GB]3/2[B,FA]3/2[B,EG] | %10
 (9:8:8[B,EG]/[B,DF]3/2 [B,DF]2- [B,DF]/ [B,DF]/-[B,DF]3/2[F,B,D]3/2[K:bass][F,CE] | %11
 (9:8:7[B,DF]2 [A,EF]3/2[A,EF] [B,F]/-[B,F]3/2[DFB]3/2[DFB] | (9:8:9AA B2- B/ c/-c3/2d/-d3/2c/ | %13
 (9:8:8B/B3/2 B2- B/ [^Fd]/-[Fd]3/2[FA]3/2[FA] | (9:8:8G/G3/2 G2- G/ B/-B3/2A3/2G | %15
 (9:8:7F2 F3/2F F/-F3/2A3/2B | (3:2:2c4 [DFB]2 [DFB]2- [DFB]/4 z/4 z/ z | %17
 d4- d-d/4 z/4 z/ (3[Gc][GB][EG] | F6- F/4 z/4 z/ z | z2 .E2 (3E3/2A/-[CA] z2 | F6- F/4 z/4 z/ z | %21
 z4 [CF]3/4 z/4 z z2 | (3[B,DB]BB z2 [^Fd]4- | [Fd]3/4 z/4 z z2 (3:2:2=F4 B2 | %24
[M:3/4] (3:2:4c4- c/[DB]3/2 [DB]3 |] %25
V:2
 z4 z2 [B,,F,][B,,F,] | [B,,B,]<[B,,B,] [B,,B,]2 [B,,F,]3 [D,B,]/[D,B,]/ | %2
 [E,B,]<[E,B,E] [E,B,E]2 [E,B,E]2 [E,B,E][E,B,E] | B,,2 C,C, D,2 [B,,F,][B,,F,] | %4
 [F,C]2 [F,D][F,D] [F,E]2 [B,,F,B,][B,,F,] | [B,,B,]<[B,,B,] [B,,B,]2 B,,3 D,/D,/ | %6
 E,<E, E,2 E,2 E,[E,B,E] | [F,B,D]2 [F,B,D][F,B,D] [F,A,C]2 [F,C][F,D] | %8
[M:35/32] [F,E]3 [B,,F,] [B,,F,]2 [B,,B,]-(3:2:4[B,,B,]3/2-[B,,B,]/4D,3/4-D,/8 | %9
[M:4/4] (9:8:8E,/E,3/2 E,2- E,/ E,/-E,3/2E,3/2E, | %10
 (9:8:8B,,/B,,3/2 B,,2- B,,/ B,,/-B,,3/2B,,3/2B,, | (9:8:7B,,2 C,3/2C, D,/-D,3/2B,,3/2B,, | %12
 (9:8:9[F,CF][F,CF] [F,DF]2- [F,DF]/ [F,A,E]/-[F,A,E]3/2[F,A,F]/-[F,A,F]3/2[^F,A,E]/ | %13
 (9:8:8[G,B,D]/[G,B,D]3/2 [G,B,D]2- [G,B,D]/ [D,A,]/-[D,A,]3/2[D,D]3/2[D,C] | %14
 (9:8:8[E,B,]/[E,B,E]3/2 [E,B,E]2- [E,B,E]/ [E,G,E]/-[E,G,E]3/2[=E,G,_D]3/2[E,B,D] | %15
 (9:8:7[F,B,D]2 [F,B,D]3/2[F,B,D] [F,A,C]/-[F,A,C]3/2[F,CF]3/2[F,DF] | [EF]3- [EF]/4 z/4 z/ z4 | %17
 z4 z2 (3[E,E][E,E][E,B,] | z2 (3[B,,B,][B,,B,][B,,B,] [B,,B,]2- [B,,B,]/4 z/4 z/ z | %19
 .[F,A,E]2 .[F,A,]2 (3[F,A,]3/2-[F,A,-F-]/[F,A,F] z2 | %20
 z2 (3[F,B,][F,B,][F,B,] [F,C]2- [F,C]/4 z/4 z/ z | (3:2:2B,, z2 z2 (3:2:2A,, z2 z2 | %22
 z2 (3[G,B,D][G,B,D][G,B,D] z4 | z4 (3:2:2F,4 [F,B,D]2 | %24
[M:3/4] (3:2:4[F,A,E]4- [F,A,E]/[B,,F,]3/2 [B,,F,]3 |] %25
V:3
 x8 | x8 | x8 | x8 | x8 | x8 | x8 | x8 |[M:35/32] x35/4 |[M:4/4] x8 | x8 | x8 | x8 | x8 | x8 | x8 | %16
 (3:2:2F,4 B,,2 B,,2- B,,/4 z/4 z/ z | .[B,,B,]2 .[B,,B,]2 (3:2:2[B,,B,]2 [D,B,] z2 | %18
 [B,,B,]2- [B,,B,]/4 z/4 z/ z z4 | z4 z2 (3C,C,C, | [F,A,]2- [F,A,]/4 z/4 z/ z z4 | x8 | %22
 (3G,,[G,B,D][G,B,D] z2 [D,A,]4 | (3:2:2[E,B,]3 E,3 [B,D]3- [B,D]/4 z/4 z/ |[M:3/4] x6 |] %25
V:4
 x8 | x8 | x8 | x8 | x8 | x8 | x8 | x8 |[M:35/32] x35/4 |[M:4/4] x8 | x347/60[K:bass] x89/40 | x8 | %12
 x8 | x8 | x8 | x8 | x8 | .F2 .F2 (3F3/2-[FA-]/[FA] z2 | z2 (3DDD D2- D/4 z/4 z/ z | %19
 c4- c-c/4 z/4 z/ (3[B,=EG][CFA][B,EG] | z2 (3DDD E2- E/4 z/4 z/ z | %21
 (3:2:2[B,DF] z2 z2 E2- E/4 z/4 z/ z | z2 (3BBB z4 | z2 B,2- B,/4 z/4 z/ z z2 |[M:3/4] x6 |] %25
V:5
 x8 | x8 | x8 | x8 | x8 | x8 | x8 | x8 |[M:35/32] x35/4 |[M:4/4] x8 | x347/60[K:bass] x89/40 | x8 | %12
 x8 | x8 | x8 | x8 | x8 | x8 | D2- D/4 z/4 z/ z z4 | x8 | x8 | x8 | x8 | G4- G/4 z/4 z/ z z2 | %24
[M:3/4] x6 |] %25

